material/.icons/material/format-color-highlight.svg

<svg xmlns="http://www.w3.org/2000/svg" viewBox="0 0 24 24"><path d="M4 17l2.75-2.75-.03-.02c-.58-.59-.58-1.54 0-2.12l4.74-4.74 4.24 4.24-4.74 4.74c-.57.58-1.5.58-2.09.02l-.63.63H4M15.91 2.91c.59-.58 1.54-.58 2.12 0l2.13 2.12c.58.59.58 1.54 0 2.13l-3.3 3.29-4.24-4.24 3.29-3.3z"/></svg>

<?xml version="1.0" encoding="UTF-8"?><!DOCTYPE svg PUBLIC "-//W3C//DTD SVG 1.1//EN" "http://www.w3.org/Graphics/SVG/1.1/DTD/svg11.dtd"><svg xmlns="http://www.w3.org/2000/svg" xmlns:xlink="http://www.w3.org/1999/xlink" version="1.1" id="mdi-format-color-highlight" width="24" height="24" viewBox="0 0 24 24"><path d="M4,17L6.75,14.25L6.72,14.23C6.14,13.64 6.14,12.69 6.72,12.11L11.46,7.37L15.7,11.61L10.96,16.35C10.39,16.93 9.46,16.93 8.87,16.37L8.24,17H4M15.91,2.91C16.5,2.33 17.45,2.33 18.03,2.91L20.16,5.03C20.74,5.62 20.74,6.57 20.16,7.16L16.86,10.45L12.62,6.21L15.91,2.91Z" /></svg>
